svgs/thin/send-backward.svg

<svg xmlns="http://www.w3.org/2000/svg" viewBox="0 0 512 512"><!--! Font Awesome Pro 6.5.1 by @fontawesome - https://fontawesome.com License - https://fontawesome.com/license (Commercial License) Copyright 2023 Fonticons, Inc. --><path d="M288 16H64C37.5 16 16 37.5 16 64V288c0 26.5 21.5 48 48 48h64v16H64c-35.3 0-64-28.7-64-64V64C0 28.7 28.7 0 64 0H288c35.3 0 64 28.7 64 64v64H336V64c0-26.5-21.5-48-48-48zm0 112H272V96c0-8.8-7.2-16-16-16H96c-8.8 0-16 7.2-16 16V256c0 8.8 7.2 16 16 16h32v16H96c-17.7 0-32-14.3-32-32V96c0-17.7 14.3-32 32-32H256c17.7 0 32 14.3 32 32v32zM176 224V448c0 26.5 21.5 48 48 48H448c26.5 0 48-21.5 48-48V224c0-26.5-21.5-48-48-48H224c-26.5 0-48 21.5-48 48zm-16 0c0-35.3 28.7-64 64-64H448c35.3 0 64 28.7 64 64V448c0 35.3-28.7 64-64 64H224c-35.3 0-64-28.7-64-64V224z"/></svg>

<svg xmlns="http://www.w3.org/2000/svg" viewBox="0 0 512 512"><!--! Font Awesome Pro 6.1.1 by @fontawesome - https://fontawesome.com License - https://fontawesome.com/license (Commercial License) Copyright 2022 Fonticons, Inc. --><path d="M288 16H64C37.49 16 16 37.49 16 64V288C16 314.5 37.49 336 64 336H120C124.4 336 128 339.6 128 344C128 348.4 124.4 352 120 352H64C28.65 352 0 323.3 0 288V64C0 28.65 28.65 0 64 0H288C323.3 0 352 28.65 352 64V120C352 124.4 348.4 128 344 128C339.6 128 336 124.4 336 120V64C336 37.49 314.5 16 288 16zM272 120V96C272 87.16 264.8 80 256 80H96C87.16 80 80 87.16 80 96V256C80 264.8 87.16 272 96 272H120C124.4 272 128 275.6 128 280C128 284.4 124.4 288 120 288H96C78.33 288 64 273.7 64 256V96C64 78.33 78.33 64 96 64H256C273.7 64 288 78.33 288 96V120C288 124.4 284.4 128 280 128C275.6 128 272 124.4 272 120zM160 224C160 188.7 188.7 160 224 160H448C483.3 160 512 188.7 512 224V448C512 483.3 483.3 512 448 512H224C188.7 512 160 483.3 160 448V224zM176 448C176 474.5 197.5 496 224 496H448C474.5 496 496 474.5 496 448V224C496 197.5 474.5 176 448 176H224C197.5 176 176 197.5 176 224V448z"/></svg>
